X: 263
T: Dumfries House
R: jig
M: 6/8
L: 1/8
Z: 2012 John Chambers <jc:trillian.mit.edu>
B: J. Anderson "Budget of Strathspeys, Reels and Country Dances" (Early 1800s) p.26 #3
F: http://imslp.org/wiki/Anderson%27s_Budget_of_Strathspeys,_Reels_and_Country_Dances_(Various)
N: There's a 4-dot repeat symbol at the start of part 1, whose rhythm doesn't agree with bar 8. ???
K: G
D |\
G2G G2g | dBG GAB | cde dcB | AFD DEF |\
G2G G2g | dBG GAB | cBc DEF | G2G G2 :|
B |\
dBd dBd | gag gfe | dBd dcB | AFD D2(B/c/) |\
dBd dBd | gag gfe | dcB AGF | GAG G2 ||
(B/c/) |\
dBd dBd | gag gfe | dgd BdB | AFD D2 (B/c/) |\
dBd ece fdf gfe | dcB Agf | g2g gab |]

%%sep 2 1 500
%%sep 1 1 500

